Newaita-dark/apps/64/org.gnome.Usage.svg

<?xml version="1.0" encoding="UTF-8"?>
<svg xmlns="http://www.w3.org/2000/svg" xmlns:xlink="http://www.w3.org/1999/xlink" width="64pt" height="64pt" viewBox="0 0 64 64" version="1.1">
<defs>
<linearGradient id="linear0" gradientUnits="userSpaceOnUse" x1="254" y1="233.5" x2="254" y2="254.666672" gradientTransform="matrix(0.125012,0,0,0.125012,-0.00000763012,26.87757)">
<stop offset="0" style="stop-color:rgb(0%,0%,0%);stop-opacity:0.27451;"/>
<stop offset="1" style="stop-color:rgb(0%,0%,0%);stop-opacity:0;"/>
</linearGradient>
<radialGradient id="radial0" gradientUnits="userSpaceOnUse" cx="450.908936" cy="189.579361" fx="450.908936" fy="189.579361" r="21.166656" gradientTransform="matrix(0.000000348341,-0.156265,-0.281277,-0.000000203077,97.646083,127.190665)">
<stop offset="0" style="stop-color:rgb(0%,0%,0%);stop-opacity:0.313725;"/>
<stop offset="0.222222" style="stop-color:rgb(0%,0%,0%);stop-opacity:0.27451;"/>
<stop offset="1" style="stop-color:rgb(0%,0%,0%);stop-opacity:0;"/>
</radialGradient>
<radialGradient id="radial1" gradientUnits="userSpaceOnUse" cx="450.908936" cy="189.579361" fx="450.908936" fy="189.579361" r="21.166656" gradientTransform="matrix(-0.000000348341,0.156265,0.281277,0.000000203077,-34.140017,-15.054958)">
<stop offset="0" style="stop-color:rgb(0%,0%,0%);stop-opacity:0.313725;"/>
<stop offset="0.222222" style="stop-color:rgb(0%,0%,0%);stop-opacity:0.27451;"/>
<stop offset="1" style="stop-color:rgb(0%,0%,0%);stop-opacity:0;"/>
</radialGradient>
<radialGradient id="radial2" gradientUnits="userSpaceOnUse" cx="450.908936" cy="189.579361" fx="450.908936" fy="189.579361" r="21.166656" gradientTransform="matrix(-0.000000348341,-0.156265,0.281277,-0.000000203077,-34.140017,127.190665)">
<stop offset="0" style="stop-color:rgb(0%,0%,0%);stop-opacity:0.313725;"/>
<stop offset="0.222222" style="stop-color:rgb(0%,0%,0%);stop-opacity:0.27451;"/>
<stop offset="1" style="stop-color:rgb(0%,0%,0%);stop-opacity:0;"/>
</radialGradient>
<radialGradient id="radial3" gradientUnits="userSpaceOnUse" cx="450.908936" cy="189.579361" fx="450.908936" fy="189.579361" r="21.166656" gradientTransform="matrix(0.000000348341,0.156265,-0.281277,0.000000203077,97.646079,-15.054959)">
<stop offset="0" style="stop-color:rgb(0%,0%,0%);stop-opacity:0.313725;"/>
<stop offset="0.222222" style="stop-color:rgb(0%,0%,0%);stop-opacity:0.27451;"/>
<stop offset="1" style="stop-color:rgb(0%,0%,0%);stop-opacity:0;"/>
</radialGradient>
<linearGradient id="linear1" gradientUnits="userSpaceOnUse" x1="306.916656" y1="-25.791676" x2="305.954559" y2="-141.414581" gradientTransform="matrix(0.150699,0,0,0.434824,-11.708026,67.282696)">
<stop offset="0" style="stop-color:rgb(61.960784%,61.960784%,61.960784%);stop-opacity:1;"/>
<stop offset="1" style="stop-color:rgb(87.843137%,87.843137%,87.843137%);stop-opacity:1;"/>
</linearGradient>
<linearGradient id="linear2" gradientUnits="userSpaceOnUse" x1="254" y1="159.416672" x2="254" y2="191.166672" gradientTransform="matrix(1,0,0,1,0,-21.166668)">
<stop offset="0" style="stop-color:rgb(25.882353%,25.882353%,25.882353%);stop-opacity:1;"/>
<stop offset="1" style="stop-color:rgb(38.039216%,38.039216%,38.039216%);stop-opacity:1;"/>
</linearGradient>
<linearGradient id="linear3" gradientUnits="userSpaceOnUse" x1="243.416672" y1="85.333336" x2="243.416672" y2="-105.166656" gradientTransform="matrix(0.125012,0,0,0.125012,-0.00000550053,26.877566)">
<stop offset="0" style="stop-color:rgb(87.843137%,87.843137%,87.843137%);stop-opacity:1;"/>
<stop offset="1" style="stop-color:rgb(61.960784%,61.960784%,61.960784%);stop-opacity:1;"/>
</linearGradient>
<linearGradient id="linear4" gradientUnits="userSpaceOnUse" x1="960" y1="1135.118164" x2="960" y2="695.118103" gradientTransform="matrix(0.0330761,0,0,0.0330761,0,0)">
<stop offset="0" style="stop-color:rgb(0%,53.72549%,48.235294%);stop-opacity:1;"/>
<stop offset="1" style="stop-color:rgb(30.196078%,71.372549%,67.45098%);stop-opacity:1;"/>
</linearGradient>
</defs>
<g id="surface1">
<path style=" stroke:none;fill-rule:nonzero;fill:url(#linear0);" d="M 18.523438 56.066406 L 44.984375 56.066406 L 44.984375 58.714844 L 18.523438 58.714844 Z M 18.523438 56.066406 "/>
<path style=" stroke:none;fill-rule:nonzero;fill:url(#radial0);" d="M 44.984375 56.066406 L 50.277344 56.066406 L 50.277344 53.421875 L 44.984375 53.421875 Z M 44.984375 56.066406 "/>
<path style=" stroke:none;fill-rule:nonzero;fill:url(#radial1);" d="M 18.523438 56.066406 L 13.230469 56.066406 L 13.230469 58.714844 L 18.523438 58.714844 Z M 18.523438 56.066406 "/>
<path style=" stroke:none;fill-rule:nonzero;fill:url(#radial2);" d="M 18.523438 56.066406 L 13.230469 56.066406 L 13.230469 53.421875 L 18.523438 53.421875 Z M 18.523438 56.066406 "/>
<path style=" stroke:none;fill-rule:nonzero;fill:url(#radial3);" d="M 44.984375 56.066406 L 50.277344 56.066406 L 50.277344 58.714844 L 44.984375 58.714844 Z M 44.984375 56.066406 "/>
<path style=" stroke:none;fill-rule:nonzero;fill:url(#linear1);" d="M 15.875 5.792969 L 47.628906 5.792969 C 49.089844 5.792969 50.277344 6.976562 50.277344 8.4375 L 50.277344 53.421875 C 50.277344 54.882812 49.089844 56.066406 47.628906 56.066406 L 15.875 56.066406 C 14.414062 56.066406 13.230469 54.882812 13.230469 53.421875 L 13.230469 8.4375 C 13.230469 6.976562 14.414062 5.792969 15.875 5.792969 Z M 15.875 5.792969 "/>
<path style=" stroke:none;fill-rule:nonzero;fill:rgb(0%,0%,0%);fill-opacity:0.196078;" d="M 15.875 56.066406 C 14.410156 56.066406 13.230469 54.886719 13.230469 53.421875 L 13.230469 53.089844 C 13.230469 54.558594 14.410156 55.738281 15.875 55.738281 L 47.628906 55.738281 C 49.09375 55.738281 50.277344 54.558594 50.277344 53.089844 L 50.277344 53.421875 C 50.277344 54.886719 49.09375 56.066406 47.628906 56.066406 Z M 15.875 56.066406 "/>
<path style=" stroke:none;fill-rule:nonzero;fill:rgb(90.196079%,90.196079%,90.196079%);fill-opacity:0.937255;" d="M 15.875 5.792969 C 14.410156 5.792969 13.230469 6.972656 13.230469 8.4375 L 13.230469 8.769531 C 13.230469 7.304688 14.410156 6.121094 15.875 6.121094 L 47.628906 6.121094 C 49.09375 6.121094 50.277344 7.304688 50.277344 8.769531 L 50.277344 8.4375 C 50.277344 6.972656 49.09375 5.792969 47.628906 5.792969 Z M 15.875 5.792969 "/>
<path style=" stroke:none;fill-rule:nonzero;fill:rgb(12.941177%,12.941177%,12.941177%);fill-opacity:1;" d="M 15.875 5.605469 C 14.308594 5.605469 13.042969 6.871094 13.042969 8.4375 L 13.042969 53.421875 C 13.042969 54.988281 14.308594 56.253906 15.875 56.253906 L 47.628906 56.253906 C 49.195312 56.253906 50.464844 54.988281 50.464844 53.421875 L 50.464844 8.4375 C 50.464844 6.871094 49.195312 5.605469 47.628906 5.605469 Z M 15.875 5.980469 L 47.628906 5.980469 C 48.996094 5.980469 50.089844 7.074219 50.089844 8.4375 L 50.089844 53.421875 C 50.089844 54.789062 48.996094 55.878906 47.628906 55.878906 L 15.875 55.878906 C 14.511719 55.878906 13.417969 54.789062 13.417969 53.421875 L 13.417969 8.4375 C 13.417969 7.074219 14.511719 5.980469 15.875 5.980469 Z M 15.875 5.980469 "/>
<path style="fill-rule:nonzero;fill:url(#linear2);stroke-width:3;stroke-linecap:round;stroke-linejoin:miter;stroke:rgb(12.941177%,12.941177%,12.941177%);stroke-opacity:1;stroke-miterlimit:4;" d="M 158.734842 138.247517 L 349.247898 138.247517 C 355.09109 138.247517 359.840637 142.997063 359.840637 148.840255 L 359.840637 159.401746 C 359.840637 165.276185 355.09109 169.994485 349.247898 169.994485 L 158.734842 169.994485 C 152.89165 169.994485 148.17335 165.276185 148.17335 159.401746 L 148.17335 148.840255 C 148.17335 142.997063 152.89165 138.247517 158.734842 138.247517 Z M 158.734842 138.247517 " transform="matrix(0.125012,0,0,0.125012,0,26.877566)"/>
<path style="fill-rule:nonzero;fill:rgb(74.117649%,74.117649%,74.117649%);fill-opacity:0.392157;stroke-width:2.999999;stroke-linecap:round;stroke-linejoin:miter;stroke:rgb(12.941177%,12.941177%,12.941177%);stroke-opacity:1;stroke-miterlimit:4;" d="M 137.580612 -147.506445 C 143.423804 -147.506445 148.17335 -142.756899 148.17335 -136.913707 C 148.17335 -131.070515 143.423804 -126.320968 137.580612 -126.320968 C 131.73742 -126.320968 126.987873 -131.070515 126.987873 -136.913707 C 126.987873 -142.756899 131.73742 -147.506445 137.580612 -147.506445 Z M 137.580612 -147.506445 " transform="matrix(0.125012,0,0,0.125012,0,26.877566)"/>
<path style="fill-rule:nonzero;fill:rgb(74.117649%,74.117649%,74.117649%);fill-opacity:0.392157;stroke-width:3;stroke-linecap:round;stroke-linejoin:miter;stroke:rgb(12.941177%,12.941177%,12.941177%);stroke-opacity:1;stroke-miterlimit:4;" d="M 370.402128 -147.506445 C 376.276567 -147.506445 380.994867 -142.756899 380.994867 -136.913707 C 380.994867 -131.070515 376.276567 -126.320968 370.402128 -126.320968 C 364.558936 -126.320968 359.840637 -131.070515 359.840637 -136.913707 C 359.840637 -142.756899 364.558936 -147.506445 370.402128 -147.506445 Z M 370.402128 -147.506445 " transform="matrix(0.125012,0,0,0.125012,0,26.877566)"/>
<path style="fill-rule:nonzero;fill:rgb(74.117649%,74.117649%,74.117649%);fill-opacity:0.392157;stroke-width:3;stroke-linecap:round;stroke-linejoin:miter;stroke:rgb(12.941177%,12.941177%,12.941177%);stroke-opacity:1;stroke-miterlimit:4;" d="M 370.402128 191.179962 C 376.276567 191.179962 380.994867 195.898261 380.994867 201.741453 C 380.994867 207.584645 376.276567 212.334192 370.402128 212.334192 C 364.558936 212.334192 359.840637 207.584645 359.840637 201.741453 C 359.840637 195.898261 364.558936 191.179962 370.402128 191.179962 Z M 370.402128 191.179962 " transform="matrix(0.125012,0,0,0.125012,0,26.877566)"/>
<path style="fill-rule:nonzero;fill:rgb(74.117649%,74.117649%,74.117649%);fill-opacity:0.392157;stroke-width:3;stroke-linecap:round;stroke-linejoin:miter;stroke:rgb(12.941177%,12.941177%,12.941177%);stroke-opacity:1;stroke-miterlimit:4;" d="M 137.580612 191.179962 C 143.423804 191.179962 148.17335 195.898261 148.17335 201.741453 C 148.17335 207.584645 143.423804 212.334192 137.580612 212.334192 C 131.73742 212.334192 126.987873 207.584645 126.987873 201.741453 C 126.987873 195.898261 131.73742 191.179962 137.580612 191.179962 Z M 137.580612 191.179962 " transform="matrix(0.125012,0,0,0.125012,0,26.877566)"/>
<path style=" stroke:none;fill-rule:nonzero;fill:url(#linear3);" d="M 31.753906 13.730469 C 38.328125 13.730469 43.660156 19.0625 43.660156 25.636719 C 43.660156 32.214844 38.328125 37.546875 31.753906 37.546875 C 25.175781 37.546875 19.84375 32.214844 19.84375 25.636719 C 19.84375 19.0625 25.175781 13.730469 31.753906 13.730469 Z M 31.753906 13.730469 "/>
<path style=" stroke:none;fill-rule:nonzero;fill:url(#linear4);" d="M 19.84375 25.636719 C 19.84375 32.234375 25.15625 37.546875 31.753906 37.546875 C 38.351562 37.546875 43.660156 32.234375 43.660156 25.636719 C 39.691406 20.675781 39.691406 30.929688 36.054688 25.636719 C 33.40625 22 32.414062 22.332031 30.097656 25.636719 C 28.777344 28.285156 27.121094 28.613281 25.800781 25.636719 C 23.484375 22 21.832031 22 19.84375 25.636719 Z M 19.84375 25.636719 "/>
<path style=" stroke:none;fill-rule:nonzero;fill:rgb(12.941177%,12.941177%,12.941177%);fill-opacity:1;" d="M 31.753906 13.578125 C 25.074219 13.578125 19.691406 18.957031 19.691406 25.636719 C 19.691406 32.316406 25.074219 37.699219 31.753906 37.699219 C 38.433594 37.699219 43.8125 32.316406 43.8125 25.636719 C 43.8125 18.957031 38.433594 13.578125 31.753906 13.578125 Z M 31.753906 13.882812 C 38.265625 13.882812 43.507812 19.125 43.507812 25.636719 C 43.507812 32.152344 38.265625 37.390625 31.753906 37.390625 C 25.238281 37.390625 20 32.152344 20 25.636719 C 20 19.125 25.238281 13.882812 31.753906 13.882812 Z M 31.753906 13.882812 "/>
</g>
</svg>

<svg xmlns="http://www.w3.org/2000/svg" width="64pt" height="64pt" viewBox="0 0 64 64"><defs><linearGradient id="a" gradientUnits="userSpaceOnUse" x1="254" y1="233.5" x2="254" y2="254.667" gradientTransform="translate(0 26.878) scale(.12501)"><stop offset="0" stop-opacity=".275"/><stop offset="1" stop-opacity="0"/></linearGradient><radialGradient id="b" gradientUnits="userSpaceOnUse" cx="450.909" cy="189.579" fx="450.909" fy="189.579" r="21.167" gradientTransform="matrix(0 -.15626 -.28128 0 97.646 127.19)"><stop offset="0" stop-opacity=".314"/><stop offset=".222" stop-opacity=".275"/><stop offset="1" stop-opacity="0"/></radialGradient><radialGradient id="c" gradientUnits="userSpaceOnUse" cx="450.909" cy="189.579" fx="450.909" fy="189.579" r="21.167" gradientTransform="matrix(0 .15626 .28128 0 -34.14 -15.055)"><stop offset="0" stop-opacity=".314"/><stop offset=".222" stop-opacity=".275"/><stop offset="1" stop-opacity="0"/></radialGradient><radialGradient id="d" gradientUnits="userSpaceOnUse" cx="450.909" cy="189.579" fx="450.909" fy="189.579" r="21.167" gradientTransform="matrix(0 -.15626 .28128 0 -34.14 127.19)"><stop offset="0" stop-opacity=".314"/><stop offset=".222" stop-opacity=".275"/><stop offset="1" stop-opacity="0"/></radialGradient><radialGradient id="e" gradientUnits="userSpaceOnUse" cx="450.909" cy="189.579" fx="450.909" fy="189.579" r="21.167" gradientTransform="matrix(0 .15626 -.28128 0 97.646 -15.055)"><stop offset="0" stop-opacity=".314"/><stop offset=".222" stop-opacity=".275"/><stop offset="1" stop-opacity="0"/></radialGradient><linearGradient id="f" gradientUnits="userSpaceOnUse" x1="306.917" y1="-25.792" x2="305.955" y2="-141.415" gradientTransform="matrix(.1507 0 0 .43482 -11.708 67.283)"><stop offset="0" stop-color="#9e9e9e"/><stop offset="1" stop-color="#e0e0e0"/></linearGradient><linearGradient id="g" gradientUnits="userSpaceOnUse" x1="254" y1="159.417" x2="254" y2="191.167" gradientTransform="translate(0 -21.167)"><stop offset="0" stop-color="#424242"/><stop offset="1" stop-color="#616161"/></linearGradient><linearGradient id="h" gradientUnits="userSpaceOnUse" x1="243.417" y1="85.333" x2="243.417" y2="-105.167" gradientTransform="translate(0 26.878) scale(.12501)"><stop offset="0" stop-color="#e0e0e0"/><stop offset="1" stop-color="#9e9e9e"/></linearGradient><linearGradient id="i" gradientUnits="userSpaceOnUse" x1="960" y1="1135.118" x2="960" y2="695.118" gradientTransform="scale(.03308)"><stop offset="0" stop-color="#00897b"/><stop offset="1" stop-color="#4db6ac"/></linearGradient></defs><path d="M18.523 56.066h26.461v2.649h-26.46zm0 0" fill="url(#a)"/><path d="M44.984 56.066h5.293v-2.644h-5.293zm0 0" fill="url(#b)"/><path d="M18.523 56.066H13.23v2.649h5.293zm0 0" fill="url(#c)"/><path d="M18.523 56.066H13.23v-2.644h5.293zm0 0" fill="url(#d)"/><path d="M44.984 56.066h5.293v2.649h-5.293zm0 0" fill="url(#e)"/><path d="M15.875 5.793h31.754a2.647 2.647 0 0 1 2.648 2.644v44.985a2.647 2.647 0 0 1-2.648 2.644H15.875a2.644 2.644 0 0 1-2.645-2.644V8.438a2.644 2.644 0 0 1 2.645-2.645zm0 0" fill="url(#f)"/><path d="M15.875 56.066a2.639 2.639 0 0 1-2.645-2.644v-.332a2.64 2.64 0 0 0 2.645 2.648h31.754a2.643 2.643 0 0 0 2.648-2.648v.332a2.642 2.642 0 0 1-2.648 2.644zm0 0" fill-opacity=".196"/><path d="M15.875 5.793a2.639 2.639 0 0 0-2.645 2.644v.333a2.642 2.642 0 0 1 2.645-2.649h31.754a2.646 2.646 0 0 1 2.648 2.649v-.332a2.642 2.642 0 0 0-2.648-2.645zm0 0" fill="#e6e6e6" fill-opacity=".937"/><path d="M15.875 5.605a2.83 2.83 0 0 0-2.832 2.832v44.985a2.83 2.83 0 0 0 2.832 2.832h31.754a2.832 2.832 0 0 0 2.836-2.832V8.438a2.832 2.832 0 0 0-2.836-2.833zm0 .375h31.754a2.45 2.45 0 0 1 2.46 2.457v44.985a2.447 2.447 0 0 1-2.46 2.457H15.875a2.447 2.447 0 0 1-2.457-2.457V8.438a2.449 2.449 0 0 1 2.457-2.458zm0 0" fill="#212121"/><path d="M158.735 138.248h190.513c5.843 0 10.593 4.75 10.593 10.592v10.562c0 5.874-4.75 10.592-10.593 10.592H158.735c-5.843 0-10.562-4.718-10.562-10.592V148.84c0-5.843 4.719-10.592 10.562-10.592zm0 0" transform="translate(0 26.878) scale(.12501)" fill="url(#g)" stroke-width="3" stroke-linecap="round" stroke="#212121"/><path d="M17.2 8.437a1.325 1.325 0 0 1 0 2.649 1.325 1.325 0 0 1 0-2.649zm0 0M46.305 8.437c.734 0 1.324.594 1.324 1.325a1.323 1.323 0 1 1-2.645 0c0-.73.59-1.325 1.32-1.325zm0 0M46.305 50.777a1.323 1.323 0 1 1 0 0zm0 0M17.2 50.777a1.322 1.322 0 1 1 0 2.645 1.322 1.322 0 1 1 0-2.645zm0 0" fill="#bdbdbd" fill-opacity=".392" stroke-width=".37503000000000003" stroke-linecap="round" stroke="#212121"/><path d="M31.754 13.73c6.574 0 11.906 5.332 11.906 11.907 0 6.578-5.332 11.91-11.906 11.91-6.578 0-11.91-5.332-11.91-11.91 0-6.575 5.332-11.907 11.91-11.907zm0 0" fill="url(#h)"/><path d="M19.844 25.637c0 6.597 5.312 11.91 11.91 11.91a11.881 11.881 0 0 0 11.906-11.91c-3.969-4.961-3.969 5.293-7.605 0-2.649-3.637-3.64-3.305-5.957 0-1.32 2.648-2.977 2.976-4.297 0-2.317-3.637-3.969-3.637-5.957 0zm0 0" fill="url(#i)"/><path d="M31.754 13.578A12.037 12.037 0 0 0 19.69 25.637a12.04 12.04 0 0 0 12.063 12.062c6.68 0 12.058-5.383 12.058-12.062 0-6.68-5.378-12.059-12.058-12.059zm0 .305a11.728 11.728 0 0 1 11.754 11.754A11.726 11.726 0 0 1 31.754 37.39 11.723 11.723 0 0 1 20 25.637a11.726 11.726 0 0 1 11.754-11.754zm0 0" fill="#212121"/></svg>
